X: 2
T: Captain Kelly
R: reel
M: 4/4
L: 1/8
K: Gmaj
||b~g3 g2 bg | eg dg eg dg | b~g3 g2 bg | egfa ~g3z |b~g3 g2 bg | eg dg eg de | gzga gfed| egfa ~g3z ||


Tune 3059	Setting 3059

